X: 511
T: Cefâya Ey Büt-i Nevreste
C: Kara İsmail Ağa
O: Turkey
F: http://compmusic.upf.edu/node/140
N: saba--nakis--yuruksemai--cefaya_ey--kara_ismail_aga
N: makam= saba
N: form= nakis
N: usul= yuruksemai = 6/8
M: 6/8
L: 1/16
K: C _2/4B _3/4d  
Q: 1/4=96
%%MIDI tuningsystem comma53
G4d8d4 dcded2c2  | c4c2B2 BABcB2A2 A4z4  | \
w:  Ce fâ ya  ey   |  büt_ i  *  nev *  *  *  *  *  res  | 
G4G8A4 A2B2A2B2  | 
w:  te  ta ka tim   | 
=d2c2B2A2 G4z4 d2c2d2e2  | c12c2B2 BABcB2A2  | \
w:  var  *  *  *  yok   Öm  |  rüm  câ *  nım   | 
c6BA A8 z8  | 
w:  hey    | 
=d4e8d2c2 g2f2f4  | f2e2e2d2 dcded2c2 c6B2  | \
w:  Ni gâh_ ı  *  rûh_  |  i  *  ni *  gâ *  *  *  *  *  re   | 
d4dcde d2c2c4 cBcdc2B2  | 
w:  ka na *  *  *  *  *  a tim   | 
BABcB2A2 A4z4 =d2c2d2e2  | c8 c2d2c2B2 BABcB2A2  | 
w:  var  *  *  *  *  *  yok   Öm  |  rüm  *  *  câ *  nım   | 
c6BA A8 z8  | A8 d2c2B2A2 G4z4  | A4A4 A2G2A2B2 c4z4  | \
w:  hey    |  Yâr   |  yel  lel  li  *  ye le  lâ   | 
d4dcde d2c2c8c2B2  | 
w:  câ nım  *  *  *  *  *  yâr   | 
A2c4BA A8 z8  | A8 d2c2B2A2 G4z4  | A4A4 A2G2A2B2 c4z4  | 
w:  hey   |  dost    |  Ter  dil  li  *  ye  le  lâ   | 
d4dcde d2c2c8c2B2  | A2c4BA A8 z8  | \
w:  mî rim  *  *  *  *  *  yâr   |  hey  *  *  *  dost    | 
=d12d3c d4z4  | 
w:  Hey   | 
e4g2f2 f2e2e2d2 d2c4B2  | c2B2c2d2 c2B2e2f2 e2d4c2  | 
w:  hey   |  hey  *  *  *  *  *  câ *  nım   | 
d2cdc2d2 d2c2c2B2 c2d2c2B2  | A8 (3B2A2B2c8z4  | \
w:  yâr  *  *  *  *  *  *  yâr   |  gel  a *  *  man    | 
z8 e2d2d2c2 c8  | 
w:  Hay *  *  *  ran   | 
cBA2B8z4 e2d2d2c2  | c8 cBA2B4 d6c2  | \
w:  *  *  *  *  kur  |  ban  *  *  *  *  ser  | 
c2d2c2d2 c2B2d2cd c2d2c2B2  | 
w:  ger *  *  *  *  *  da  | 
e2d2d2c2 c2B2B2A2 B2c2B4  | d2e2c2d2 B2c2A2B2 G4z4  | 
w:  nı *  nam  *  *  *  ben   |  ben    | 
z8 A4B4 d2c2B2A2  | G8 z4e2f2 e2d4c2  | \
w:  Gel  e fen  |  dim  a *  man   | 
c12c2B2 BABcB2A2  | 
w:   | 
A2c4BA A8 z8  | =d4d8d4 d^cded2c2  | \
w:  hey    |  Me ğer  ki  ey  | 
^c2=d2c2_7/8B2 BABcB2A2 A4z4  | 
w:  le *  ye  *  ken *  *  *  *  *  di   | 
G4G6^FGA4 A2B2A2B2  | =d2c2B2A2 G4z4 d2c2d2e2  | \
w:  be ni  *  *  se zâ  |  yı  *  vi *  sal   Öm  | 
c12c2B2 BABcB2A2  | 
w:  rüm  câ *  nım   | 
c6BA A8 z8  | =d4e8e2d2 g2f2f4  | f2e2e2d2 dcded2c2 c6B2  | 
w:  hey    |  Ni yâz_ ı  *  vus  |  la *  ta  *  zi *  *  *  *  *  râ   | 
d4dcde d2c2c4 cBcdc2B2  | BABcB2A2 A4z4 =d2c2d2e2  | 
w:  li ya *  *  *  *  *  ka tim   |  var  *  *  *  *  *  yok   Öm  | 
c8 c2d2c2B2 BABcB2A2  | c6BA A8 z8  | \
w:  rüm  *  *  câ *  nım   |  hey    | 
A8 d2c2B2A2 G4z4  | 
w:  Yâr   | 
A4A4 A2G2A2B2 c4z4  | d4dcde d2c2c8c2B2  | \
w:  yel  lel  li  *  ye le  lâ   |  câ nım  *  *  *  *  *  yâr   | 
A2c4BA A8 z8  | 
w:  hey   | 
A8 d2c2B2A2 G4z4  | A4A4 A2G2A2B2 c4z4  | \
w:  dost    |  Ter  dil  li  *  ye  le  lâ   | 
d4dcde d2c2c8c2B2  | 
w:  mî rim  *  *  *  *  *  yâr   | 
A2c4BA A8 z8  | =d12d3c d4z4  | e4g2f2 f2e2e2d2 d2c4B2  | 
w:  hey  *  *  *  dost    |  Hey   |  hey   | 
c2B2c2d2 c2B2e2f2 e2d4c2  | d2cdc2d2 d2c2c2B2 c2d2c2B2  | 
w:  hey  *  *  *  *  *  câ *  nım   |  yâr  *  *  *  *  *  *  yâr   | 
A8 (3B2A2B2c8z4  | z8 e2d2d2c2 c8  | \
w:  gel  a *  *  man    |  Hay *  *  *  ran   | 
cBA2B8z4 e2d2d2c2  | 
w:  *  *  *  *  kur  | 
c8 cBA2B4 d6c2  | c2d2c2d2 c2B2d2cd c2d2c2B2  | \
w:  ban  *  *  *  *  ser  |  ger *  *  *  *  *  da  | 
e2d2d2c2 c2B2B2A2 B2c2B4  | 
w:  nı *  nam  *  *  *  ben   | 
d2e2c2d2 B2c2A2B2 G4z4  | z8 A4B4 d2c2B2A2  | \
w:  ben    |  Gel  e fen  | 
G8 z4e2f2 e2d4c2  | 
w:  dim  a *  man   | 
c12c2B2 BABcB2A2  | A2c4BA A8 z8  | |


